public/images/icon-vector.svg

<svg width="128" height="128" viewBox="0 0 128 128" fill="none" xmlns="http://www.w3.org/2000/svg">
<rect width="128" height="128" rx="28" fill="#141414"/>
<path fill-rule="evenodd" clip-rule="evenodd" d="M49.0119 99.5C49.0119 97.8456 48.8821 96.4597 49.073 95.1239C49.1543 94.5542 49.8215 93.9442 50.3656 93.6002C53.0183 91.9226 55.9 90.5831 58.3697 88.659C66.3695 82.4264 71.1113 74.2216 71.3704 63.5636C71.4439 60.5373 70.3275 59.7813 67.7768 60.9602C60.414 64.3636 52.4964 62.3681 48.2709 56.0434C43.6628 49.1453 44.3117 39.9608 49.833 33.9348C56.8854 26.2383 68.4896 26.008 76.4917 33.3585C81.2851 37.7615 83.5628 43.4468 84.1307 49.9134C86.0349 71.5775 75.1308 89.4341 55.2848 97.2784C53.3207 98.0543 51.3066 98.6917 49.0119 99.5Z" fill="white"/>
</svg>

<svg xmlns="http://www.w3.org/2000/svg" width="128" height="128" fill="none"><rect width="128" height="128" fill="#141414" rx="28"/><path fill="#fff" fill-rule="evenodd" d="M49.012 99.5c0-1.654-.13-3.04.061-4.376.081-.57.749-1.18 1.293-1.524 2.652-1.677 5.534-3.017 8.004-4.941 8-6.233 12.741-14.437 13-25.095.074-3.027-1.043-3.783-3.593-2.604-7.363 3.404-15.28 1.408-19.506-4.917-4.608-6.898-3.96-16.082 1.562-22.108 7.052-7.697 18.657-7.927 26.659-.577 4.793 4.404 7.07 10.089 7.639 16.555 1.904 21.665-9 39.521-28.846 47.365-1.964.776-3.978 1.414-6.273 2.222" clip-rule="evenodd"/></svg>
